X:0716
M:C|
L:1/8
Q:1/2=104
K:G
d3 e d3 e| dgdg  d2Bc |d3 e d3  e | dgdg  d2B2 |
c2ec B2dB|(ABcA) B2G2 |G2g2 d2(cB)|(ABcA) B2G2:|

